static/images/hp-bench.svg

<svg width="330" height="306" viewBox="0 0 330 306" fill="none" xmlns="http://www.w3.org/2000/svg">
<path d="M319.518 194H10.4824C4.65882 194 0 198.699 0 204.573V211.622C0 217.497 4.65882 222.196 10.4824 222.196H37.2706V302.476C37.2706 304.434 38.8235 306 40.7647 306C42.7059 306 44.2588 304.434 44.2588 302.476V266.056H286.518V302.476C286.518 304.434 288.071 306 290.012 306C291.953 306 293.506 304.434 293.506 302.476V222.196H320.294C325.341 222.196 330 217.497 330 211.622V204.573C330 198.699 325.341 194 319.518 194ZM43.8706 222.196H77.2588L43.8706 255.874V222.196ZM50.8588 258.615L86.9647 222.196H243.035L279.141 258.615H50.8588ZM286.129 255.483L252.741 221.804H286.129V255.483Z" fill="#FFA788"/>
<path d="M219.15 51.4018C226.482 51.9107 234.199 52.2924 241.788 51.9107C229.44 21.5022 199.471 0 164.484 0C131.428 0 102.744 19.0848 89.3672 46.8214C99.2713 51.1473 109.176 55.2188 119.851 56.2366L219.15 51.4018Z" fill="white"/>
<path d="M99.4001 82.4465C105.703 81.9375 112.005 80.7924 118.437 81.1741C124.096 81.5558 129.627 83.0826 135.287 84.1005C145.319 85.8817 155.609 85.7545 165.514 83.5915C173.103 82.0648 180.563 79.3929 188.152 79.2656C196.384 79.1384 204.487 81.9375 212.719 81.1741C220.308 80.538 227.768 76.8482 235.486 77.8661C239.731 78.5023 243.718 80.538 247.705 82.192C247.705 71.5045 245.647 61.1987 241.789 51.7835C234.2 52.1652 226.482 51.7835 219.15 51.2746L119.98 56.1094C109.176 55.2188 99.2715 51.1473 89.496 46.6942C84.4796 57.1273 81.6498 68.8326 81.3926 81.0469C88.3384 82.0648 95.2841 82.8281 99.4001 82.4465Z" fill="#F7DBD1"/>
<path d="M83.0661 99.2411C89.3687 98.096 95.5428 96.6964 100.945 95.6786C112.007 93.6429 123.454 93.6429 134.645 95.6786C143.263 97.2054 151.881 99.8772 160.627 99.75C169.888 99.6228 178.892 96.3147 188.024 95.2969C201.273 93.7701 214.393 97.2054 227.512 99.6228C233.301 100.768 239.217 101.658 245.134 102.04C246.678 95.6786 247.578 89.0625 247.578 82.3192C243.591 80.6652 239.603 78.6295 235.359 77.9933C227.77 76.8482 220.309 80.5379 212.592 81.3013C204.36 81.9375 196.257 79.2656 188.024 79.3929C180.307 79.5201 172.975 82.192 165.386 83.7188C155.482 85.7545 145.192 86.0089 135.159 84.2277C129.5 83.2098 123.969 81.683 118.309 81.3013C112.007 80.9196 105.576 82.0647 99.2729 82.5737C95.1569 82.9554 88.2111 82.192 81.1367 81.3013C81.1367 81.683 81.1367 81.9375 81.1367 82.3192C81.2653 88.0446 81.9085 93.7701 83.0661 99.2411Z" fill="#FFBFA8"/>
<path d="M188.023 95.2969C178.762 96.3148 169.887 99.6228 160.626 99.75C151.879 99.8773 143.39 97.2054 134.643 95.6786C123.581 93.7701 112.134 93.7701 100.943 95.6786C95.5411 96.5692 89.3671 98.096 83.0645 99.2411C84.608 106.621 87.1805 113.491 90.5247 119.98C91.9396 120.107 93.3545 120.362 94.6407 120.616C103.902 122.27 113.034 124.942 122.295 126.342C132.843 127.996 143.647 127.868 154.194 126.087C163.841 124.433 173.36 121.379 183.006 119.344C200.242 115.781 217.993 115.4 235.228 118.453C236.386 118.708 237.544 118.835 238.701 119.089C241.402 113.746 243.589 108.02 245.004 102.167C239.087 101.786 233.17 100.895 227.382 99.75C214.391 97.2054 201.271 93.7701 188.023 95.2969Z" fill="#FFDFAF"/>
<path d="M183.136 119.344C173.489 121.379 163.971 124.433 154.324 126.087C143.777 127.868 132.972 127.996 122.425 126.342C113.164 124.942 104.031 122.27 94.7703 120.616C93.4841 120.362 92.0692 120.234 90.6543 119.98C104.546 146.444 132.329 164.384 164.485 164.384C197.028 164.384 225.197 145.935 238.831 118.962C237.673 118.708 236.516 118.58 235.358 118.326C218.122 115.4 200.243 115.654 183.136 119.344Z" fill="#FEF0A5"/>
</svg>

<svg width="330" height="306" fill="none" xmlns="http://www.w3.org/2000/svg"><path d="M319.518 194H10.482C4.66 194 0 198.699 0 204.573v7.049c0 5.875 4.659 10.574 10.482 10.574h26.789v80.28c0 1.958 1.553 3.524 3.494 3.524 1.94 0 3.494-1.566 3.494-3.524v-36.42h242.259v36.42c0 1.958 1.553 3.524 3.494 3.524 1.941 0 3.494-1.566 3.494-3.524v-80.28h26.788c5.047 0 9.706-4.699 9.706-10.574v-7.049c0-5.874-4.659-10.573-10.482-10.573zM43.871 222.196h33.388L43.87 255.874v-33.678zm6.988 36.419l36.106-36.419h156.07l36.106 36.419H50.859zm235.27-3.132l-33.388-33.679h33.388v33.679z" fill="#FFA788"/><path d="M219.15 51.402c7.332.509 15.049.89 22.638.509C229.44 21.502 199.471 0 164.484 0c-33.056 0-61.74 19.085-75.117 46.821 9.904 4.326 19.809 8.398 30.484 9.416l99.299-4.835z" fill="#fff"/><path d="M99.4 82.447c6.303-.51 12.605-1.655 19.037-1.273 5.659.382 11.19 1.909 16.85 2.926 10.032 1.782 20.322 1.654 30.227-.508 7.589-1.527 15.049-4.2 22.638-4.326 8.232-.128 16.335 2.671 24.567 1.908 7.589-.636 15.049-4.326 22.767-3.308 4.245.636 8.232 2.672 12.219 4.326 0-10.688-2.058-20.993-5.916-30.408-7.589.381-15.307 0-22.639-.51l-99.17 4.835c-10.804-.89-20.709-4.962-30.484-9.415-5.016 10.433-7.846 22.139-8.103 34.353 6.945 1.018 13.891 1.781 18.007 1.4z" fill="#F7DBD1"/><path d="M83.066 99.241c6.303-1.145 12.477-2.545 17.879-3.562 11.062-2.036 22.509-2.036 33.7 0 8.618 1.526 17.236 4.198 25.982 4.071 9.261-.127 18.265-3.435 27.397-4.453 13.249-1.527 26.369 1.908 39.488 4.326 5.789 1.145 11.705 2.035 17.622 2.417 1.544-6.361 2.444-12.978 2.444-19.72-3.987-1.655-7.975-3.69-12.219-4.327-7.589-1.145-15.05 2.545-22.767 3.308-8.232.636-16.335-2.035-24.568-1.908-7.717.127-15.049 2.799-22.638 4.326-9.904 2.035-20.194 2.29-30.227.509-5.659-1.018-11.19-2.545-16.85-2.927-6.302-.381-12.733.764-19.036 1.273-4.116.381-11.062-.382-18.136-1.273v1.018c.128 5.726.772 11.451 1.93 16.922z" fill="#FFBFA8"/><path d="M188.023 95.297c-9.261 1.018-18.136 4.326-27.397 4.453-8.747.127-17.236-2.545-25.983-4.071-11.062-1.909-22.509-1.909-33.7 0-5.402.89-11.576 2.417-17.879 3.562 1.544 7.38 4.117 14.25 7.46 20.739 1.416.127 2.83.382 4.117.636 9.261 1.654 18.393 4.326 27.654 5.726 10.548 1.654 21.352 1.526 31.899-.255 9.647-1.654 19.166-4.708 28.812-6.743 17.236-3.563 34.987-3.944 52.222-.891 1.158.255 2.316.382 3.473.636 2.701-5.343 4.888-11.069 6.303-16.922-5.917-.381-11.834-1.272-17.622-2.417-12.991-2.545-26.111-5.98-39.359-4.453z" fill="#FFDFAF"/><path d="M183.136 119.344c-9.647 2.035-19.165 5.089-28.812 6.743-10.547 1.781-21.352 1.909-31.899.255-9.261-1.4-18.394-4.072-27.655-5.726-1.286-.254-2.7-.382-4.116-.636 13.892 26.464 41.675 44.404 73.831 44.404 32.543 0 60.712-18.449 74.346-45.422-1.158-.254-2.315-.382-3.473-.636-17.236-2.926-35.115-2.672-52.222 1.018z" fill="#FEF0A5"/></svg>
